X:4068
T:Derriere chez nous - bourree
C:traditionell
Z:abc transcription Simon Wascher
N:please mail errors to: simon.wascher@chello.at
M:2/4
L:1/8
K:Gmixo
d2 dc|d3e|f3/2e/2 dc|d2 AB|
c2 cB|c3d|e3/2d/2 cB|A4:|
|:G2 AG|d3c|A3/2B/2 AB|G2 dB|
G2 AG|d3c|A3/2B/2 AB|G4:|
